;FLAVOR:Marlin
;TIME:4751
;Filament used: 2.74329m
;Layer height: 0.16
;MINX:78.679
;MINY:60.176
;MINZ:0.2
;MAXX:120.275
;MAXY:101.772
;MAXZ:17.88
;Generated with Cura_SteamEngine main
M140 S50
M105
M190 S50
M104 S200
M105
M109 S200
M82 ;absolute extrusion mode
; Ender 3 Custom Start G-code
G92 E0 ; Reset Extruder
G28 ; Home all axes
G1 Z2.0 F3000 ; Move Z Axis up little to prevent scratching of Heat Bed
G1 X0.1 Y20 Z0.3 F5000.0 ; Move to start position
G1 X0.1 Y200.0 Z0.3 F1500.0 E15 ; Draw the first line
G1 X0.4 Y200.0 Z0.3 F5000.0 ; Move to side a little
G1 X0.4 Y20 Z0.3 F1500.0 E30 ; Draw the second line
G92 E0 ; Reset Extruder
G1 Z2.0 F3000 ; Move Z Axis up little to prevent scratching of Heat Bed
G1 X5 Y20 Z0.3 F5000.0 ; Move over to prevent blob squish
G92 E0
G92 E0
G1 F2700 E-2.5
;LAYER_COUNT:108
;LAYER:0
M117 DASHBOARD_LAYER_INDICATOR 1
M107
G0 F6000 X83.225 Y67.994 Z0.2
G0 X78.679 Y80.758
;TYPE:SKIRT
G1 F2700 E0
G1 F1200 X78.698 Y80.076 E0.02269
G1 X78.754 Y79.191 E0.05219
G1 X78.789 Y78.829 E0.06428
G1 X78.87 Y78.149 E0.08706
G1 X78.935 Y77.708 E0.10189
G1 X79.054 Y77.038 E0.12452
G1 X79.237 Y76.181 E0.15367
G1 X79.328 Y75.812 E0.16631
G1 X79.508 Y75.154 E0.189
G1 X79.623 Y74.772 E0.20226
G1 X79.816 Y74.186 E0.22278
G1 X79.942 Y73.834 E0.23522
G1 X80.172 Y73.234 E0.25659
G1 X80.327 Y72.858 E0.27012
G1 X80.611 Y72.219 E0.29338
G1 X81.02 Y71.383 E0.32433
G1 X81.208 Y71.031 E0.3376
G1 X81.665 Y70.236 E0.3681
G1 X82.025 Y69.658 E0.39075
G1 X82.264 Y69.298 E0.40512
G1 X82.656 Y68.74 E0.4278
G1 X82.89 Y68.423 E0.44091
G1 X83.225 Y67.994 E0.45901
G1 X83.875 Y67.221 E0.4926
G1 X84.158 Y66.906 E0.50669
G1 X84.628 Y66.411 E0.52939
G1 X84.925 Y66.114 E0.54336
G1 X85.421 Y65.645 E0.56607
G1 X86.084 Y65.061 E0.59545
G1 X86.366 Y64.828 E0.60762
G1 X86.902 Y64.406 E0.63031
G1 X87.266 Y64.136 E0.64538
G1 X87.824 Y63.747 E0.66801
G1 X88.54 Y63.283 E0.69638
G1 X88.885 Y63.074 E0.7098
G1 X89.479 Y62.736 E0.73253
G1 X89.808 Y62.559 E0.74496
G1 X90.358 Y62.28 E0.76547
G1 X90.72 Y62.108 E0.7788
G1 X91.312 Y61.845 E0.80034
G1 X91.652 Y61.703 E0.8126
G1 X92.246 Y61.472 E0.8338
G1 X92.617 Y61.339 E0.84691
G1 X93.22 Y61.139 E0.86804
G1 X93.572 Y61.031 E0.88028
G1 X94.136 Y60.873 E0.89976
G1 X95.102 Y60.641 E0.93281
G1 X95.508 Y60.558 E0.94659
G1 X96.506 Y60.389 E0.98025
G1 X97.148 Y60.306 E1.00179
G1 X97.545 Y60.265 E1.01506
G1 X98.19 Y60.215 E1.03658
G1 X98.576 Y60.195 E1.04943
G1 X99.26 Y60.176 E1.07219
G1 X99.706 Y60.176 E1.08703
G1 X100.388 Y60.196 E1.10972
G1 X101.261 Y60.252 E1.13881
G1 X101.626 Y60.287 E1.15101
G1 X102.27 Y60.364 E1.17258
G1 X102.646 Y60.418 E1.18522
G1 X103.284 Y60.526 E1.20674
G1 X103.666 Y60.601 E1.21969
G1 X104.299 Y60.741 E1.24125
G1 X104.702 Y60.841 E1.25506
G1 X105.325 Y61.014 E1.27656
G1 X105.671 Y61.119 E1.28859
G1 X106.259 Y61.312 E1.30917
G1 X106.647 Y61.451 E1.32288
G1 X107.294 Y61.702 E1.34596
G1 X107.621 Y61.837 E1.35773
G1 X108.156 Y62.073 E1.37718
G1 X108.491 Y62.231 E1.3895
G1 X109.064 Y62.517 E1.4108
G1 X109.406 Y62.698 E1.42367
G1 X109.916 Y62.985 E1.44313
G1 X110.226 Y63.169 E1.45512
G1 X110.805 Y63.531 E1.47783
G1 X111.149 Y63.759 E1.49156
G1 X111.705 Y64.149 E1.51415
G1 X112.058 Y64.412 E1.52879
G1 X112.594 Y64.835 E1.5515
G1 X113.263 Y65.402 E1.58067
G1 X113.532 Y65.644 E1.5927
G1 X114.028 Y66.113 E1.61541
G1 X114.337 Y66.422 E1.62994
G1 X114.806 Y66.918 E1.65264
G1 X115.396 Y67.589 E1.68236
G1 X115.618 Y67.858 E1.69396
G1 X116.04 Y68.393 E1.71663
G1 X116.318 Y68.769 E1.73218
G1 X116.707 Y69.328 E1.75483
G1 X117.168 Y70.038 E1.78299
G1 X117.377 Y70.383 E1.7964
G1 X117.715 Y70.977 E1.81913
G1 X117.892 Y71.306 E1.83156
G1 X118.171 Y71.856 E1.85207
G1 X118.342 Y72.216 E1.86533
G1 X118.603 Y72.803 E1.88669
G1 X118.746 Y73.145 E1.89902
G1 X118.977 Y73.739 E1.92022
G1 X119.109 Y74.107 E1.93322
G1 X119.311 Y74.715 E1.95453
G1 X119.419 Y75.066 E1.96675
G1 X119.577 Y75.629 E1.9862
G1 X119.667 Y75.983 E1.99835
G1 X119.82 Y76.646 E2.02098
G1 X119.902 Y77.049 E2.03465
G1 X120.02 Y77.72 E2.05731
G1 X120.084 Y78.158 E2.07204
G1 X120.196 Y79.162 E2.10564
G1 X120.237 Y79.704 E2.12372
G1 X120.256 Y80.074 E2.13604
G1 X120.275 Y80.755 E2.1587
G1 X120.275 Y81.202 E2.17357
G1 X120.255 Y81.884 E2.19626
G1 X120.199 Y82.757 E2.22535
G1 X120.164 Y83.12 E2.23748
G1 X120.083 Y83.8 E2.26026
G1 X120.018 Y84.241 E2.27509
G1 X119.899 Y84.911 E2.29772
G1 X119.716 Y85.768 E2.32687
G1 X119.625 Y86.137 E2.33951
G1 X119.445 Y86.795 E2.3622
G1 X119.33 Y87.177 E2.37546
G1 X119.137 Y87.763 E2.39598
G1 X119.011 Y88.115 E2.40842
G1 X118.781 Y88.715 E2.42979
G1 X118.626 Y89.091 E2.44332
G1 X118.342 Y89.73 E2.46658
G1 X117.933 Y90.566 E2.49753
G1 X117.745 Y90.918 E2.5108
G1 X117.288 Y91.713 E2.5413
G1 X116.928 Y92.291 E2.56395
G1 X116.691 Y92.648 E2.5782
G1 X116.3 Y93.205 E2.60084
G1 X116.039 Y93.556 E2.61539
G1 X115.616 Y94.092 E2.6381
G1 X115.049 Y94.761 E2.66726
G1 X114.801 Y95.036 E2.67958
G1 X114.332 Y95.531 E2.70226
G1 X114.029 Y95.833 E2.71649
G1 X113.28 Y96.532 E2.75056
G1 X112.869 Y96.888 E2.76865
G1 X112.58 Y97.126 E2.7811
G1 X112.044 Y97.547 E2.80377
G1 X111.694 Y97.806 E2.81825
G1 X111.136 Y98.196 E2.8409
G1 X110.413 Y98.666 E2.86958
G1 X110.068 Y98.875 E2.88299
G1 X109.474 Y99.213 E2.90572
G1 X109.13 Y99.398 E2.91872
G1 X108.579 Y99.676 E2.93924
G1 X108.241 Y99.836 E2.95168
G1 X107.651 Y100.099 E2.97316
G1 X107.304 Y100.244 E2.98567
G1 X106.708 Y100.476 E3.00695
G1 X106.338 Y100.609 E3.02002
G1 X105.736 Y100.809 E3.04112
G1 X105.352 Y100.926 E3.05447
G1 X104.689 Y101.109 E3.07735
G1 X104.336 Y101.197 E3.08945
G1 X103.458 Y101.388 E3.11933
G1 X102.821 Y101.502 E3.14086
G1 X102.446 Y101.56 E3.15348
G1 X101.803 Y101.643 E3.17504
G1 X101.407 Y101.684 E3.18828
G1 X100.762 Y101.734 E3.2098
G1 X100.365 Y101.754 E3.22302
G1 X99.683 Y101.772 E3.24571
G1 X99.26 Y101.772 E3.25978
G1 X98.577 Y101.753 E3.28251
G1 X97.692 Y101.697 E3.312
G1 X97.327 Y101.662 E3.3242
G1 X96.683 Y101.585 E3.34577
G1 X96.295 Y101.529 E3.35881
G1 X95.657 Y101.42 E3.38034
G1 X95.289 Y101.348 E3.39281
G1 X94.655 Y101.208 E3.4144
G1 X94.258 Y101.109 E3.42801
G1 X93.636 Y100.937 E3.44947
G1 X93.279 Y100.829 E3.46188
G1 X92.692 Y100.636 E3.48243
G1 X92.311 Y100.499 E3.4959
G1 X91.663 Y100.248 E3.51901
G1 X91.32 Y100.106 E3.53136
G1 X90.469 Y99.721 E3.56242
G1 X89.898 Y99.437 E3.58364
G1 X89.537 Y99.245 E3.59724
G1 X88.733 Y98.783 E3.62808
G1 X88.156 Y98.423 E3.6507
G1 X87.796 Y98.184 E3.66507
G1 X87.239 Y97.792 E3.68772
G1 X86.51 Y97.236 E3.71822
G1 X86.235 Y97.012 E3.73001
G1 X85.718 Y96.571 E3.75262
G1 X85.409 Y96.293 E3.76644
G1 X84.913 Y95.822 E3.78919
G1 X84.622 Y95.531 E3.80288
G1 X84.153 Y95.036 E3.82556
G1 X83.563 Y94.367 E3.85523
G1 X83.325 Y94.078 E3.86768
G1 X82.904 Y93.542 E3.89035
G1 X82.645 Y93.192 E3.90483
G1 X82.08 Y92.373 E3.93792
G1 X81.786 Y91.914 E3.95605
G1 X81.573 Y91.561 E3.96976
G1 X81.236 Y90.968 E3.99245
G1 X81.061 Y90.643 E4.00473
G1 X80.781 Y90.091 E4.02531
G1 X80.609 Y89.73 E4.03861
G1 X80.349 Y89.145 E4.05991
G1 X80.208 Y88.806 E4.07212
G1 X79.976 Y88.21 E4.09339
G1 X79.842 Y87.837 E4.10657
G1 X79.641 Y87.231 E4.12781
G1 X79.522 Y86.839 E4.14143
G1 X79.331 Y86.143 E4.16544
G1 X79.126 Y85.271 E4.19523
G1 X79.051 Y84.898 E4.20789
G1 X78.933 Y84.226 E4.23058
G1 X78.869 Y83.791 E4.2452
G1 X78.757 Y82.785 E4.27887
G1 X78.716 Y82.241 E4.29701
G1 X78.697 Y81.861 E4.30967
G1 X78.679 Y81.181 E4.33229
G1 X78.679 Y80.758 E4.34636
G0 F6000 X79.079 Y80.769
G1 F1200 X79.114 Y79.761 E4.37991
G1 X79.153 Y79.22 E4.39795
G1 X79.186 Y78.877 E4.40941
G1 X79.267 Y78.197 E4.43219
G1 X79.329 Y77.778 E4.44627
G1 X79.448 Y77.108 E4.46891
G1 X79.628 Y76.268 E4.49748
G1 X79.714 Y75.917 E4.5095
G1 X79.894 Y75.259 E4.53219
G1 X80.003 Y74.897 E4.54476
G1 X80.196 Y74.311 E4.56528
G1 X80.315 Y73.977 E4.57708
G1 X80.545 Y73.377 E4.59845
G1 X80.693 Y73.021 E4.61127
G1 X81.12 Y72.078 E4.6457
G1 X81.378 Y71.562 E4.66489
G1 X81.556 Y71.228 E4.67748
G1 X82.005 Y70.448 E4.70741
G1 X82.365 Y69.87 E4.73006
G1 X82.591 Y69.528 E4.74369
G1 X82.983 Y68.97 E4.76637
G1 X83.206 Y68.67 E4.77881
G1 X83.738 Y67.998 E4.80731
G1 X84.179 Y67.48 E4.82994
G1 X84.448 Y67.182 E4.84329
G1 X84.918 Y66.687 E4.866
G1 X85.2 Y66.405 E4.87926
G1 X85.696 Y65.936 E4.90197
G1 X86.346 Y65.364 E4.93076
G1 X86.613 Y65.143 E4.94229
G1 X87.149 Y64.721 E4.96498
G1 X87.495 Y64.465 E4.9793
G1 X88.297 Y63.912 E5.0117
G1 X88.755 Y63.619 E5.02978
G1 X89.083 Y63.421 E5.04252
G1 X89.677 Y63.083 E5.06525
G1 X90.539 Y62.637 E5.09754
G1 X90.883 Y62.473 E5.11021
G1 X91.475 Y62.21 E5.13176
G1 X91.797 Y62.076 E5.14336
G1 X92.391 Y61.845 E5.16455
G1 X92.743 Y61.718 E5.177
G1 X93.346 Y61.518 E5.19813
G1 X93.68 Y61.416 E5.20975
G1 X94.564 Y61.176 E5.24021
G1 X95.192 Y61.03 E5.26166
G1 X95.577 Y60.951 E5.27473
G1 X96.215 Y60.838 E5.29628
G1 X96.557 Y60.786 E5.30778
G1 X97.199 Y60.703 E5.32932
G1 X97.576 Y60.664 E5.34192
G1 X98.221 Y60.614 E5.36344
G1 X98.588 Y60.595 E5.37566
G1 X99.272 Y60.576 E5.39842
G1 X99.694 Y60.576 E5.41246
G1 X100.376 Y60.596 E5.43515
G1 X101.232 Y60.651 E5.46368
G1 X101.579 Y60.684 E5.47527
G1 X102.223 Y60.761 E5.49684
G1 X102.579 Y60.813 E5.50881
G1 X103.217 Y60.921 E5.53033
G1 X103.58 Y60.992 E5.54263
G1 X104.213 Y61.132 E5.5642
G1 X104.595 Y61.227 E5.57729
G1 X105.546 Y61.499 E5.61019
G1 X106.134 Y61.692 E5.63077
G1 X106.502 Y61.824 E5.64377
G1 X107.46 Y62.203 E5.67804
G1 X107.995 Y62.439 E5.69749
G1 X108.313 Y62.589 E5.70918
G1 X108.886 Y62.875 E5.73048
G1 X109.21 Y63.047 E5.74268
G1 X110.014 Y63.508 E5.77351
G1 X110.593 Y63.87 E5.79622
G1 X110.919 Y64.087 E5.80925
G1 X111.475 Y64.477 E5.83183
G1 X111.81 Y64.726 E5.84572
G1 X112.346 Y65.149 E5.86843
G1 X113.002 Y65.705 E5.89703
G1 X113.257 Y65.935 E5.90845
G1 X113.753 Y66.404 E5.93115
G1 X114.046 Y66.697 E5.94494
G1 X114.515 Y67.193 E5.96764
G1 X115.093 Y67.851 E5.99677
G1 X115.304 Y68.106 E6.00778
G1 X115.726 Y68.641 E6.03044
G1 X115.99 Y68.997 E6.04518
G1 X116.539 Y69.795 E6.0774
G1 X116.832 Y70.253 E6.09548
G1 X117.03 Y70.581 E6.10823
G1 X117.368 Y71.175 E6.13096
G1 X117.814 Y72.037 E6.16324
G1 X117.977 Y72.379 E6.17584
G1 X118.238 Y72.966 E6.19721
G1 X118.373 Y73.29 E6.20888
G1 X118.604 Y73.884 E6.23008
G1 X118.73 Y74.233 E6.24242
G1 X118.932 Y74.841 E6.26373
G1 X119.192 Y75.738 E6.29479
G1 X119.43 Y76.736 E6.32891
G1 X119.508 Y77.118 E6.34188
G1 X119.626 Y77.789 E6.36454
G1 X119.687 Y78.205 E6.37853
G1 X119.797 Y79.192 E6.41156
G1 X119.838 Y79.734 E6.42964
G1 X119.856 Y80.086 E6.44136
G1 X119.875 Y80.767 E6.46402
G1 X119.875 Y81.19 E6.47809
G1 X119.855 Y81.872 E6.50078
G1 X119.8 Y82.728 E6.52931
G1 X119.767 Y83.072 E6.5408
G1 X119.686 Y83.752 E6.56358
G1 X119.624 Y84.171 E6.57767
G1 X119.505 Y84.841 E6.6003
G1 X119.325 Y85.681 E6.62887
G1 X119.239 Y86.032 E6.64089
G1 X119.059 Y86.69 E6.66358
G1 X118.95 Y87.052 E6.67616
G1 X118.757 Y87.638 E6.69668
G1 X118.638 Y87.972 E6.70847
G1 X118.408 Y88.572 E6.72984
G1 X118.26 Y88.928 E6.74266
G1 X117.833 Y89.871 E6.77709
G1 X117.575 Y90.387 E6.79628
G1 X117.397 Y90.721 E6.80887
G1 X116.948 Y91.501 E6.8388
G1 X116.588 Y92.079 E6.86145
G1 X116.364 Y92.419 E6.87499
G1 X115.973 Y92.976 E6.89763
G1 X115.725 Y93.308 E6.91141
G1 X115.302 Y93.844 E6.93412
G1 X114.746 Y94.5 E6.96272
G1 X114.511 Y94.761 E6.97441
G1 X114.042 Y95.256 E6.99709
G1 X113.755 Y95.543 E7.01058
G1 X113.258 Y96.013 E7.03334
G1 X112.607 Y96.585 E7.06216
G1 X112.333 Y96.812 E7.07399
G1 X111.797 Y97.233 E7.09666
G1 X111.465 Y97.478 E7.11039
G1 X110.656 Y98.037 E7.14309
G1 X110.198 Y98.33 E7.16118
G1 X109.87 Y98.528 E7.17392
G1 X109.276 Y98.866 E7.19665
G1 X108.949 Y99.041 E7.20899
G1 X108.398 Y99.319 E7.22951
G1 X108.078 Y99.471 E7.2413
G1 X107.488 Y99.734 E7.26278
G1 X107.159 Y99.871 E7.27463
G1 X106.563 Y100.103 E7.29591
G1 X106.212 Y100.23 E7.30832
G1 X105.61 Y100.43 E7.32942
G1 X105.246 Y100.54 E7.34207
G1 X104.583 Y100.723 E7.36494
G1 X104.248 Y100.807 E7.37643
G1 X103.388 Y100.994 E7.4057
G1 X102.751 Y101.108 E7.42723
G1 X102.394 Y101.163 E7.43924
G1 X101.751 Y101.246 E7.4608
G1 X101.376 Y101.285 E7.47334
G1 X100.731 Y101.335 E7.49486
G1 X100.354 Y101.354 E7.50741
G1 X99.672 Y101.372 E7.53011
G1 X99.271 Y101.372 E7.54344
G1 X98.262 Y101.337 E7.57702
G1 X97.374 Y101.265 E7.60666
G1 X96.73 Y101.188 E7.62823
G1 X96.363 Y101.134 E7.64057
G1 X95.725 Y101.025 E7.66209
G1 X95.375 Y100.957 E7.67395
G1 X94.741 Y100.817 E7.69555
G1 X94.365 Y100.723 E7.70844
G1 X93.743 Y100.551 E7.7299
G1 X93.404 Y100.449 E7.74168
G1 X92.817 Y100.256 E7.76223
G1 X92.455 Y100.126 E7.77502
G1 X91.807 Y99.875 E7.79813
G1 X91.482 Y99.74 E7.80984
G1 X90.648 Y99.363 E7.84028
G1 X90.077 Y99.079 E7.86149
G1 X89.733 Y98.897 E7.87443
G1 X89.223 Y98.609 E7.89392
G1 X88.368 Y98.083 E7.9273
G1 X88.026 Y97.857 E7.94094
G1 X87.469 Y97.465 E7.96359
G1 X86.756 Y96.921 E7.99342
G1 X85.978 Y96.267 E8.02722
G1 X85.684 Y96.003 E8.04037
G1 X85.188 Y95.532 E8.06312
G1 X84.912 Y95.256 E8.0761
G1 X84.443 Y94.761 E8.09878
G1 X83.866 Y94.105 E8.12784
G1 X83.639 Y93.831 E8.13967
G1 X83.218 Y93.295 E8.16234
G1 X82.973 Y92.963 E8.17606
G1 X82.583 Y92.405 E8.19871
G1 X82.123 Y91.698 E8.22676
G1 X81.92 Y91.363 E8.23979
G1 X81.583 Y90.77 E8.26247
G1 X81.417 Y90.462 E8.27411
G1 X81.137 Y89.91 E8.2947
G1 X80.975 Y89.567 E8.30732
G1 X80.715 Y88.982 E8.32861
G1 X80.581 Y88.661 E8.34018
G1 X80.349 Y88.065 E8.36145
G1 X80.221 Y87.711 E8.37397
G1 X80.02 Y87.105 E8.3952
G1 X79.908 Y86.733 E8.40813
G1 X79.717 Y86.037 E8.43213
G1 X79.516 Y85.183 E8.46131
G1 X79.445 Y84.829 E8.47332
G1 X79.327 Y84.157 E8.49601
G1 X79.266 Y83.744 E8.5099
G1 X79.186 Y83.066 E8.5326
G1 X79.115 Y82.211 E8.56114
G1 X79.097 Y81.851 E8.57313
G1 X79.079 Y81.171 E8.59575
G1 X79.079 Y80.769 E8.60912
G0 F6000 X79.478 Y81.16
G1 F1200 X79.479 Y80.78 E8.62176
G1 X79.513 Y79.79 E8.65471
G1 X79.583 Y78.924 E8.68361
G1 X79.664 Y78.244 E8.70638
G1 X79.723 Y77.848 E8.7197
G1 X79.9 Y76.886 E8.75223
G1 X80.018 Y76.354 E8.77036
G1 X80.1 Y76.023 E8.7817
G1 X80.28 Y75.365 E8.80439
G1 X80.383 Y75.022 E8.8163
G1 X80.576 Y74.436 E8.83682
G1 X80.919 Y73.52 E8.86935
G1 X81.058 Y73.183 E8.88148
G1 X81.342 Y72.544 E8.90474
G1 X81.736 Y71.741 E8.93448
G1 X81.904 Y71.425 E8.94639
G1 X82.344 Y70.659 E8.97577
G1 X82.704 Y70.081 E8.99842
G1 X82.918 Y69.758 E9.0113
G1 X83.31 Y69.2 E9.03399
G1 X83.521 Y68.916 E9.04575
G1 X84.043 Y68.257 E9.07371
G1 X84.484 Y67.739 E9.09634
G1 X84.738 Y67.457 E9.10896
G1 X85.208 Y66.962 E9.13167
G1 X85.475 Y66.696 E9.1442
G1 X86.197 Y66.022 E9.17705
G1 X86.861 Y65.457 E9.20605
G1 X87.397 Y65.035 E9.22874
G1 X87.724 Y64.793 E9.24227
G1 X88.513 Y64.249 E9.27415
G1 X88.971 Y63.956 E9.29223
G1 X89.281 Y63.769 E9.30427
G1 X89.875 Y63.431 E9.327
G1 X90.17 Y63.272 E9.33815
G1 X90.72 Y62.993 E9.35866
G1 X91.045 Y62.839 E9.37062
G1 X91.637 Y62.576 E9.39217
G1 X91.942 Y62.449 E9.40316
G1 X92.536 Y62.218 E9.42436
G1 X92.869 Y62.098 E9.43613
G1 X93.472 Y61.898 E9.45726
G1 X93.788 Y61.802 E9.46824
G1 X94.655 Y61.566 E9.49813
G1 X95.283 Y61.42 E9.51957
G1 X95.647 Y61.345 E9.53193
G1 X96.285 Y61.232 E9.55348
G1 X97.25 Y61.1 E9.58588
G1 X97.607 Y61.063 E9.59782
G1 X98.252 Y61.013 E9.61933
G1 X98.599 Y60.995 E9.63089
G1 X99.283 Y60.976 E9.65365
G1 X99.682 Y60.976 E9.66692
G1 X100.364 Y60.996 E9.68961
G1 X101.203 Y61.05 E9.71758
G1 X102.175 Y61.159 E9.75011
G1 X102.512 Y61.207 E9.76143
G1 X103.15 Y61.315 E9.78295
G1 X103.494 Y61.382 E9.79461
G1 X104.127 Y61.522 E9.81617
G1 X104.488 Y61.612 E9.82854
G1 X105.111 Y61.785 E9.85005
G1 X106.009 Y62.072 E9.88141
G1 X106.358 Y62.197 E9.89374
G1 X107.298 Y62.569 E9.92736
G1 X107.833 Y62.805 E9.94681
G1 X108.707 Y63.233 E9.97918
G1 X109.014 Y63.396 E9.99074
G1 X109.802 Y63.848 E10.02095
G1 X110.381 Y64.21 E10.04366
G1 X110.69 Y64.414 E10.05598
G1 X111.246 Y64.804 E10.07857
G1 X111.563 Y65.04 E10.09171
G1 X112.099 Y65.463 E10.11442
G1 X112.741 Y66.008 E10.14243
G1 X113.478 Y66.695 E10.17594
G1 X113.755 Y66.972 E10.18897
G1 X114.435 Y67.7 E10.2221
G1 X114.791 Y68.112 E10.24021
G1 X115.412 Y68.889 E10.2733
G1 X115.662 Y69.226 E10.28725
G1 X116.051 Y69.785 E10.3099
G1 X116.495 Y70.469 E10.33703
G1 X116.682 Y70.779 E10.34907
G1 X117.02 Y71.373 E10.3718
